X:18
%%etbk:tnset id:7,pos:1,rep:3x,ant:
%%etbk:wsite http://www.thesession.org/tunes/display/2660
%%etbk:pldat 2016-07-25T18:16,2014-12-06T16:13,2014-03-25T17:21,2014-02-15T15:36,2014-02-14T16:42,2013-11-19T17:01,2013-10-04T15:07,2013-05-22T16:19,2013-05-06T18:49,2013-05-05T15:21,2013-05-01T15:32,2013-04-30T17:26
T: Cloon, The
T: Humours Of Toomagh, The
Z: Piano Box Version by Martin Fleischmann
H: Created 2013-02-19 /  Last Modified 2013-02-19
M: 4/4
L: 1/8
R: Reel
K: Dmaj
!3!d|: "D"!5!f!4!e!3!d!2!B !1!A3!2!F | !2!F!1!E!1!D!2!F !3!A3!5!d | !3!f!2!e!1!d!2!B !1!A3!2!F | !2!F!1!E!1!D!2!F "A"{A}!2!F!1!EE!3!d |
 "D"!5!fedB A3F | FEDF !3!A3!5!d | !2!dd!3!f!2!d !5!a2a!3!f|1 "A"!2!e!1!d!2!B!1!A !2!F!1!EE!3!d:|2 "A"edBA FEE2||
|: "D"!2!d2!3!f!2!d !5!a!2!d!3!f!2!d | !4!a!3!a!4!a!5!b !4!a!3!f!2!e!3!f | !2!dd!3!f!2!d !5!a!2!d!3!f!2!d | "A"!1!A!2!B!3!d!4!e !3!f!2!eef |
"D"!2!d{f}d!3!f!2!d !5!a!2!d!3!f!2!d | !4!a!3!a!4!a!5!b !4!a!3!f!2!e!3!f | !5!b!4!a!3!f!1!d !2!egfe | "A" !1!d!2!B!1!A!2!F {A}F!1!EE2:|


